PP3s/StefanChirila/stefanCHROME-I/GlassPlate-II.pp3
[Version]
AppVersion=4.2.0
Version=321

[General]
Rank=0
ColorLabel=0
InTrash=false

[Exposure]
Auto=false
Clip=0.02
Compensation=-1.6000000000000001
Brightness=25
Contrast=38
Saturation=0
Black=-16384
HighlightCompr=0
HighlightComprThreshold=33
ShadowCompr=0
CurveMode=FilmLike
CurveMode2=Standard
Curve=1;0;0.080604534005037767;0.44836272040302227;0.50629722921914355;1;1;
Curve2=1;0;0;1;1;

[HLRecovery]
Enabled=false
Method=Blend

[Channel Mixer]
Red=100;0;0;
Green=0;100;25;
Blue=0;-9;100;

[Black & White]
Enabled=false
Method=Desaturation
Auto=false
ComplementaryColors=true
Setting=NormalContrast
Filter=None
MixerRed=43
MixerOrange=33
MixerYellow=33
MixerGreen=33
MixerCyan=33
MixerBlue=30
MixerMagenta=33
MixerPurple=33
GammaRed=0
GammaGreen=0
GammaBlue=0
Algorithm=SP
LuminanceCurve=0;
BeforeCurveMode=Standard
AfterCurveMode=Standard
BeforeCurve=0;
AfterCurve=0;

[Luminance Curve]
Brightness=0
Contrast=37
Chromaticity=0
AvoidColorShift=true
RedAndSkinTonesProtection=0
LCredsk=true
LCurve=1;0.052434456928838961;0;0.54307116104868924;0.4943820224719101;1;0.94007490636704105;
aCurve=0;
bCurve=0;
ccCurve=0;
chCurve=0;
lhCurve=1;0;0.5;0.34999999999999998;0.34999999999999998;0.16666666666666666;0.5;0.34999999999999998;0.34999999999999998;0.33333333333333331;0.5;0.34999999999999998;0.34999999999999998;0.5;0.5;0.34999999999999998;0.34999999999999998;0.66666666666666663;0.5;0.34999999999999998;0.34999999999999998;0.83333333333333326;0.5;0.34999999999999998;0.34999999999999998;
hhCurve=0;
LcCurve=1;1;0;1;0;
ClCurve=1;0;0;1;1;

[Sharpening]
Enabled=false
Method=usm
Radius=0.5
Amount=200
Threshold=20;80;2000;1200;
OnlyEdges=false
EdgedetectionRadius=1.8999999999999999
EdgeTolerance=1800
HalocontrolEnabled=false
HalocontrolAmount=85
DeconvRadius=0.75
DeconvAmount=75
DeconvDamping=20
DeconvIterations=30

[Vibrance]
Enabled=false
Pastels=0
Saturated=0
PSThreshold=0;75;
ProtectSkins=false
AvoidColorShift=true
PastSatTog=true
SkinTonesCurve=0;

[SharpenEdge]
Enabled=false
Passes=2
Strength=50
ThreeChannels=false

[SharpenMicro]
Enabled=false
Matrix=false
Strength=20
Uniformity=50

[White Balance]
Setting=Camera
Temperature=5669
Green=1.0013766824457102
Equal=1

[Color appearance]
Enabled=false
Degree=90
AutoDegree=true
Surround=Average
AdaptLum=16
Badpixsl=0
Model=RawT
Algorithm=JC
J-Light=0
Q-Bright=0
C-Chroma=0
S-Chroma=0
M-Chroma=0
J-Contrast=0
Q-Contrast=0
H-Hue=0
RSTProtection=0
AdaptScene=2000
AutoAdapscen=true
SurrSource=false
Gamut=true
Datacie=false
Tonecie=false
CurveMode=Lightness
CurveMode2=Lightness
CurveMode3=Chroma
Curve=0;
Curve2=0;
Curve3=0;

[Impulse Denoising]
Enabled=false
Threshold=50

[Defringing]
Enabled=false
Radius=2
Threshold=13
HueCurve=1;0.16666666699999999;0;0.34999999999999998;0.34999999999999998;0.34699999999999998;0;0.34999999999999998;0.34999999999999998;0.51366742600000004;0;0.34999999999999998;0.34999999999999998;0.66894457100000004;0;0.34999999999999998;0.34999999999999998;0.82877752459999998;0.97835991;0.34999999999999998;0.34999999999999998;0.99088838270000001;0;0.34999999999999998;0.34999999999999998;

[Directional Pyramid Denoising]
Enabled=false
Enhance=false
Median=false
Luma=0
Ldetail=50
Chroma=15
Method=RGB
SMethod=shal
MedMethod=soft
RGBMethod=soft
MethodMed=Lonly
Redchro=0
Bluechro=0
Gamma=1.7
Passes=1
LCurve=1;0.050000000000000003;0.14999999999999999;0.34999999999999998;0.34999999999999998;0.55000000000000004;0.040000000000000001;0.34999999999999998;0.34999999999999998;

[EPD]
Enabled=false
Strength=0.25
EdgeStopping=1.3999999999999999
Scale=1
ReweightingIterates=0

[Shadows & Highlights]
Enabled=false
HighQuality=false
Highlights=0
HighlightTonalWidth=80
Shadows=0
ShadowTonalWidth=80
LocalContrast=0
Radius=40

[Crop]
Enabled=false
X=0
Y=0
W=4276
H=2836
FixedRatio=false
Ratio=3:2
Orientation=Landscape
Guide=Rule of thirds

[Coarse Transformation]
Rotate=0
HorizontalFlip=false
VerticalFlip=false

[Common Properties for Transformations]
AutoFill=true

[Rotation]
Degree=0

[Distortion]
Amount=0

[LensProfile]
LCPFile=
UseDistortion=true
UseVignette=true
UseCA=false

[Perspective]
Horizontal=0
Vertical=0

[Gradient]
Enabled=false
Degree=0
Feather=25
Strength=0.59999999999999998
CenterX=0
CenterY=0

[PCVignette]
Enabled=false
Strength=0.59999999999999998
Feather=50
Roundness=50

[CACorrection]
Red=0
Blue=0

[Vignetting Correction]
Amount=-50
Radius=50
Strength=5
CenterX=0
CenterY=0

[Resize]
Enabled=false
Scale=0.20999999999999999
AppliesTo=Cropped area
Method=Lanczos
DataSpecified=3
Width=900
Height=900

[Color Management]
InputProfile=(cameraICC)
ToneCurve=false
BlendCMSMatrix=false
DCPIlluminant=0
WorkingProfile=sRGB
OutputProfile=sRGB
Gammafree=default
Freegamma=false
GammaValue=2.2200000000000002
GammaSlope=4.5

[Directional Pyramid Equalizer]
Enabled=false
Gamutlab=false
Mult0=1
Mult1=1
Mult2=1
Mult3=1
Mult4=1
Threshold=0.20000000000000001
Skinprotect=0
Hueskin=-5;25;170;120;

[HSV Equalizer]
HCurve=1;0;0.5;0.34999999999999998;0.34999999999999998;0.16666666666666666;0.5;0.34999999999999998;0.34999999999999998;0.33333333333333331;0.5;0.34999999999999998;0.34999999999999998;0.5;0.5;0.34999999999999998;0.34999999999999998;0.66666666666666663;0.5;0.34999999999999998;0.34999999999999998;0.83333333333333326;0.5;0.34999999999999998;0.34999999999999998;
SCurve=1;0;0.5;0.34999999999999998;0.34999999999999998;0.16666666666666666;0.5;0.34999999999999998;0.34999999999999998;0.33333333333333331;0.5;0.34999999999999998;0.34999999999999998;0.5;0.5;0.34999999999999998;0.34999999999999998;0.66666666666666663;0.5;0.34999999999999998;0.34999999999999998;0.83333333333333326;0.5;0.34999999999999998;0.34999999999999998;
VCurve=1;0.0049261083743842894;0.3546798029556652;0.34999999999999998;0.34999999999999998;0.33579638752052543;0.3546798029556652;0.34999999999999998;0.34999999999999998;0.87777777777777743;0.35555555555555557;0.34999999999999998;0.34999999999999998;

[Film Simulation]
Enabled=false
ClutFilename=
Strength=100

[RGB Curves]
LumaMode=false
rCurve=1;0.022670025188916872;0;0.19395465994962216;0.21662468513853905;1;1;
gCurve=1;0.022670025188916872;0;0.19899244332493699;0.15617128463476074;1;1;
bCurve=1;0;0;0.03526448362720401;0.06045340050377835;0.12846347607052891;0.14609571788413095;0.29722921914357686;0.29722921914357703;0.5994962216624683;0.59697732997481123;1;1;

[ColorToning]
Enabled=false
Method=Lab
Lumamode=true
Twocolor=Std
Redlow=0
Greenlow=0
Bluelow=0
Satlow=0
Balance=0
Sathigh=0
Redmed=0
Greenmed=0
Bluemed=0
Redhigh=0
Greenhigh=0
Bluehigh=0
Autosat=true
OpacityCurve=1;0;0.29999999999999999;0.34999999999999998;0;0.25;0.80000000000000004;0.34999999999999998;0.34999999999999998;0.69999999999999996;0.80000000000000004;0.34999999999999998;0.34999999999999998;1;0.29999999999999999;0;0;
ColorCurve=1;0.050000000000000003;0.62;0.25;0.25;0.58499999999999996;0.11;0.25;0.25;
SatProtectionThreshold=0
SaturatedOpacity=1
Strength=50
HighlightsColorSaturation=60;80;
ShadowsColorSaturation=80;208;
ClCurve=3;0;0;0.34999999999999998;0.65000000000000002;1;1;
Cl2Curve=3;0;0;0.34999999999999998;0.65000000000000002;1;1;

[RAW]
DarkFrame=/szeva
DarkFrameAuto=false
FlatFieldFile=/szeva
FlatFieldAutoSelect=false
FlatFieldBlurRadius=32
FlatFieldBlurType=Area Flatfield
FlatFieldAutoClipControl=false
FlatFieldClipControl=false
CA=false
CARed=0
CABlue=0
HotPixelFilter=false
DeadPixelFilter=false
HotDeadPixelThresh=40
PreExposure=1
PrePreserv=0

[RAW Bayer]
Method=lmmse
CcSteps=5
PreBlack0=0
PreBlack1=0
PreBlack2=0
PreBlack3=0
PreTwoGreen=true
LineDenoise=1000
GreenEqThreshold=0
DCBIterations=2
DCBEnhance=false
LMMSEIterations=6

[RAW X-Trans]
Method=3-pass (best)
CcSteps=0
PreBlackRed=0
PreBlackGreen=0
PreBlackBlue=0
