PP3s/StefanChirila/2017/OUTdoor-Denoise-for-YellowLight.pp3
[Version]
AppVersion=5.0-r1-gtk2
Version=326

[General]
Rank=0
ColorLabel=0
InTrash=false

[Exposure]
Auto=false
Clip=0.02
Compensation=0
Brightness=31
Contrast=25
Saturation=0
Black=0
HighlightCompr=63
HighlightComprThreshold=33
ShadowCompr=50
CurveMode=Standard
CurveMode2=Standard
Curve=1;0;0.053763440860215048;1;1;
Curve2=0;

[HLRecovery]
Enabled=true
Method=Color

[Retinex]
Enabled=false
Str=12
Scal=3
Iter=1
Grad=1
Grads=1
Gam=1.3
Slope=3
Median=false
Neigh=11
Gain=50
Offs=0
Vart=500
Limd=8
highl=4
baselog=3
skal=3
RetinexMethod=highli
mapMethod=none
viewMethod=unsharp
Retinexcolorspace=Lab
Gammaretinex=none
CDCurve=0;
MAPCurve=0;
CDHCurve=0;
LHCurve=0;
Highlights=0
HighlightTonalWidth=80
Shadows=0
ShadowTonalWidth=80
Radius=40
TransmissionCurve=1;0;0.5;0.34999999999999998;0.34999999999999998;0.59999999999999998;0.75;0.34999999999999998;0.34999999999999998;1;0.5;0.34999999999999998;0.34999999999999998;
GainTransmissionCurve=1;0;0.10000000000000001;0.34999999999999998;0;0.25;0.25;0.34999999999999998;0.34999999999999998;0.69999999999999996;0.25;0.34999999999999998;0.34999999999999998;1;0.10000000000000001;0;0;

[Channel Mixer]
Red=75;0;0;
Green=5;65;29;
Blue=-16;28;90;

[Black & White]
Enabled=false
Method=ChannelMixer
Auto=false
ComplementaryColors=true
Setting=Orthochromatic
Filter=None
MixerRed=0
MixerOrange=33
MixerYellow=33
MixerGreen=42
MixerCyan=33
MixerBlue=58
MixerMagenta=33
MixerPurple=33
GammaRed=0
GammaGreen=0
GammaBlue=0
Algorithm=SP
LuminanceCurve=0;
BeforeCurveMode=Standard
AfterCurveMode=Standard
BeforeCurve=0;
AfterCurve=0;

[Luminance Curve]
Brightness=0
Contrast=30
Chromaticity=0
AvoidColorShift=true
RedAndSkinTonesProtection=0
LCredsk=true
LCurve=0;
aCurve=0;
bCurve=0;
ccCurve=0;
chCurve=0;
lhCurve=0;
hhCurve=0;
LcCurve=0;
ClCurve=0;

[Sharpening]
Enabled=false
Method=usm
Radius=2.3700000000000001
Amount=331
Threshold=20;80;2000;1200;
OnlyEdges=true
EdgedetectionRadius=1.8999999999999999
EdgeTolerance=1800
HalocontrolEnabled=true
HalocontrolAmount=85
DeconvRadius=2.5
DeconvAmount=29
DeconvDamping=100
DeconvIterations=30

[Vibrance]
Enabled=false
Pastels=0
Saturated=0
PSThreshold=0;75;
ProtectSkins=false
AvoidColorShift=true
PastSatTog=true
SkinTonesCurve=0;

[SharpenEdge]
Enabled=false
Passes=2
Strength=50
ThreeChannels=false

[SharpenMicro]
Enabled=false
Matrix=false
Strength=20
Uniformity=50

[White Balance]
Setting=Custom
Temperature=33637
Green=0.49299999999999999
Equal=1

[Color appearance]
Enabled=false
Degree=90
AutoDegree=true
Surround=Average
AdaptLum=16
Badpixsl=0
Model=RawT
Algorithm=JC
J-Light=0
Q-Bright=0
C-Chroma=0
S-Chroma=0
M-Chroma=0
J-Contrast=0
Q-Contrast=0
H-Hue=0
RSTProtection=0
AdaptScene=2000
AutoAdapscen=true
SurrSource=false
Gamut=true
Datacie=false
Tonecie=false
CurveMode=Lightness
CurveMode2=Lightness
CurveMode3=Chroma
Curve=0;
Curve2=0;
Curve3=0;

[Impulse Denoising]
Enabled=false
Threshold=19

[Defringing]
Enabled=false
Radius=2
Threshold=13
HueCurve=1;0.16666666699999999;0;0.34999999999999998;0.34999999999999998;0.34699999999999998;0;0.34999999999999998;0.34999999999999998;0.51366742600000004;0;0.34999999999999998;0.34999999999999998;0.66894457100000004;0;0.34999999999999998;0.34999999999999998;0.82877752459999998;0.97835991;0.34999999999999998;0.34999999999999998;0.99088838270000001;0;0.34999999999999998;0.34999999999999998;

[Directional Pyramid Denoising]
Enabled=true
Enhance=false
Median=false
Auto=false
Luma=0
Ldetail=0
Chroma=6.3600000000000003
Method=Lab
LMethod=SLI
CMethod=MAN
C2Method=AUTO
SMethod=shalbi
MedMethod=soft
RGBMethod=soft
MethodMed=Lonly
Redchro=-1.5
Bluechro=3.8999999999999999
Gamma=1.7
Passes=1
LCurve=1;0.050000000000000003;0.14999999999999999;0.34999999999999998;0.34999999999999998;0.55000000000000004;0.040000000000000001;0.34999999999999998;0.34999999999999998;
CCCurve=1;0.050000000000000003;0.5;0.34999999999999998;0.34999999999999998;0.34999999999999998;0.050000000000000003;0.34999999999999998;0.34999999999999998;

[EPD]
Enabled=true
Strength=0.20000000000000001
Gamma=1
EdgeStopping=4
Scale=0.29999999999999999
ReweightingIterates=0

[Shadows & Highlights]
Enabled=false
HighQuality=false
Highlights=0
HighlightTonalWidth=80
Shadows=0
ShadowTonalWidth=80
LocalContrast=0
Radius=40

[Crop]
Enabled=false
X=0
Y=0
W=4276
H=2836
FixedRatio=true
Ratio=3:2
Orientation=As Image
Guide=Frame

[Coarse Transformation]
Rotate=0
HorizontalFlip=false
VerticalFlip=false

[Common Properties for Transformations]
AutoFill=true

[Rotation]
Degree=0

[Distortion]
Amount=0

[LensProfile]
LCPFile=
UseDistortion=true
UseVignette=true
UseCA=false

[Perspective]
Horizontal=0
Vertical=0

[Gradient]
Enabled=false
Degree=0
Feather=25
Strength=0.59999999999999998
CenterX=0
CenterY=0

[PCVignette]
Enabled=false
Strength=0.59999999999999998
Feather=50
Roundness=50

[CACorrection]
Red=0
Blue=0

[Vignetting Correction]
Amount=0
Radius=50
Strength=1
CenterX=0
CenterY=0

[Resize]
Enabled=false
Scale=0.20999999999999999
AppliesTo=Cropped area
Method=Lanczos
DataSpecified=3
Width=900
Height=900

[PostResizeSharpening]
Enabled=false
Method=rld
Radius=0.5
Amount=200
Threshold=20;80;2000;1200;
OnlyEdges=false
EdgedetectionRadius=1.8999999999999999
EdgeTolerance=1800
HalocontrolEnabled=false
HalocontrolAmount=85
DeconvRadius=0.45000000000000001
DeconvAmount=100
DeconvDamping=0
DeconvIterations=100

[Color Management]
InputProfile=(cameraICC)
ToneCurve=false
ApplyLookTable=false
ApplyBaselineExposureOffset=true
ApplyHueSatMap=true
BlendCMSMatrix=false
DCPIlluminant=0
WorkingProfile=ProPhoto
OutputProfile=RT_sRGB
OutputProfileIntent=Relative
OutputBPC=true
Gammafree=default
Freegamma=false
GammaValue=2.2200000000000002
GammaSlope=4.5

[Wavelet]
Enabled=false
Strength=100
Balance=0
Iter=0
MaxLev=7
TilesMethod=full
DaubMethod=4_
ChoiceLevMethod=all
BackMethod=grey
LevMethod=4
DirMethod=all
CBgreenhigh=0
CBgreenmed=0
CBgreenlow=0
CBbluehigh=0
CBbluemed=0
CBbluelow=0
Expcontrast=false
Expchroma=false
Expedge=false
Expresid=false
Expfinal=false
Exptoning=false
Expnoise=false
Contrast1=0
Contrast2=0
Contrast3=0
Contrast4=0
Contrast5=0
Contrast6=0
Contrast7=0
Contrast8=0
Contrast9=0
Chroma1=0
Chroma2=0
Chroma3=0
Chroma4=0
Chroma5=0
Chroma6=0
Chroma7=0
Chroma8=0
Chroma9=0
ContExtra=0
HSMethod=with
HLRange=50;75;100;98;
SHRange=0;2;50;25;
Edgcont=0;10;75;40;
Level0noise=0;0;
Level1noise=0;0;
Level2noise=0;0;
Level3noise=0;0;
ThresholdHighlight=5
ThresholdShadow=4
Edgedetect=90
Edgedetectthr=20
EdgedetectthrHi=0
Edgesensi=60
Edgeampli=10
ThresholdChroma=5
CHromaMethod=without
Medgreinf=less
CHSLromaMethod=SL
EDMethod=CU
NPMethod=none
BAMethod=none
TMMethod=cont
ChromaLink=0
ContrastCurve=1;0;0.25;0.34999999999999998;0.34999999999999998;0.5;0.75;0.34999999999999998;0.34999999999999998;0.90000000000000002;0;0.34999999999999998;0.34999999999999998;
Pastlev=0;2;30;20;
Satlev=30;45;130;100;
OpacityCurveRG=1;0;0.5;0.34999999999999998;0.34999999999999998;1;0.5;0.34999999999999998;0.34999999999999998;
OpacityCurveBY=1;0;0.5;0.34999999999999998;0.34999999999999998;1;0.5;0.34999999999999998;0.34999999999999998;
OpacityCurveW=1;0;0.34999999999999998;0.34999999999999998;0;0.34999999999999998;0.75;0.34999999999999998;0.34999999999999998;0.59999999999999998;0.75;0.34999999999999998;0.34999999999999998;1;0.34999999999999998;0;0;
OpacityCurveWL=1;0;0.5;0.34999999999999998;0.34999999999999998;1;0.5;0.34999999999999998;0.34999999999999998;
HHcurve=0;
CHcurve=0;
WavclCurve=0;
Median=false
Medianlev=false
Linkedg=true
CBenab=false
Lipst=false
Skinprotect=0
Hueskin=-5;25;170;120;
Edgrad=15
Edgval=0
ThrEdg=10
AvoidColorShift=false
TMr=false
ResidualcontShadow=0
ResidualcontHighlight=0
ThresholdResidShadow=35
ThresholdResidHighLight=65
Residualchroma=0
ResidualTM=0
Residualgamma=1
HueRangeResidual=0
HueRange=-260;-250;-130;-140;
Contrast=0

[Directional Pyramid Equalizer]
Enabled=false
Gamutlab=false
cbdlMethod=bef
Mult0=1
Mult1=1
Mult2=1
Mult3=1
Mult4=1
Mult5=1
Threshold=0.20000000000000001
Skinprotect=0
Hueskin=-5;25;170;120;

[HSV Equalizer]
HCurve=0;
SCurve=0;
VCurve=0;

[Film Simulation]
Enabled=false
ClutFilename=/home/stefan/Raw_Therapee_presets/FOR_RawTherapee-flat_fields-and-dark_frames/HaldCLUT_RT4.2/Color/Fuji/Fuji 400H.png
Strength=100

[RGB Curves]
LumaMode=false
rCurve=1;0;0;0.15646258503401375;0.097505668934240383;0.43310657596371871;0.4943310657596372;0.90022675736961477;0.89795918367346883;1;1;
gCurve=1;0;0;0.15646258503401375;0.097505668934240383;0.43310657596371871;0.4943310657596372;0.90022675736961477;0.89795918367346883;1;1;
bCurve=1;0;0;0.15646258503401375;0.097505668934240383;0.43310657596371871;0.4943310657596372;0.90022675736961477;0.89795918367346883;1;1;

[ColorToning]
Enabled=false
Method=Lab
Lumamode=true
Twocolor=Std
Redlow=0
Greenlow=0
Bluelow=0
Satlow=0
Balance=0
Sathigh=0
Redmed=0
Greenmed=0
Bluemed=0
Redhigh=0
Greenhigh=0
Bluehigh=0
Autosat=true
OpacityCurve=1;0;0.29999999999999999;0.34999999999999998;0;0.25;0.80000000000000004;0.34999999999999998;0.34999999999999998;0.69999999999999996;0.80000000000000004;0.34999999999999998;0.34999999999999998;1;0.29999999999999999;0;0;
ColorCurve=1;0.050000000000000003;0.62;0.25;0.25;0.58499999999999996;0.11;0.25;0.25;
SatProtectionThreshold=0
SaturatedOpacity=1
Strength=50
HighlightsColorSaturation=60;80;
ShadowsColorSaturation=80;208;
ClCurve=3;0;0;0.34999999999999998;0.65000000000000002;1;1;
Cl2Curve=3;0;0;0.34999999999999998;0.65000000000000002;1;1;

[RAW]
DarkFrame=/szeva
DarkFrameAuto=false
FlatFieldFile=/szeva
FlatFieldAutoSelect=false
FlatFieldBlurRadius=32
FlatFieldBlurType=Area Flatfield
FlatFieldAutoClipControl=false
FlatFieldClipControl=false
CA=false
CAAutoStrength=2
CARed=0
CABlue=0
HotPixelFilter=false
DeadPixelFilter=false
HotDeadPixelThresh=100
PreExposure=1
PrePreserv=0

[RAW Bayer]
Method=dcb
CcSteps=0
PreBlack0=0
PreBlack1=0
PreBlack2=0
PreBlack3=0
PreTwoGreen=true
LineDenoise=0
GreenEqThreshold=0
DCBIterations=5
DCBEnhance=true
LMMSEIterations=6

[RAW X-Trans]
Method=3-pass (best)
CcSteps=0
PreBlackRed=0
PreBlackGreen=0
PreBlackBlue=0
